wordpress/wp-content/plugins/google-analytics-for-wordpress/lite/assets/vue/img/icon-searchwp.svg

<svg width="20" height="27" viewBox="0 0 40 54" fill="none" xmlns="http://www.w3.org/2000/svg">
	<g clip-path="url(#clip0)">
		<path fill-rule="evenodd" clip-rule="evenodd"
			  d="M4.64799 10C3.68899 10 2.86699 10.68 2.70199 11.625C2.17499 14.658 1.11199 21.34 0.999989 26.5C0.885989 31.788 2.13399 39.917 2.71199 43.364C2.87199 44.316 3.69699 45 4.66199 45H35.346C36.304 45 37.126 44.325 37.29 43.381C37.874 40.042 39.114 32.261 39 27C38.888 21.805 37.806 14.783 37.28 11.64C37.202 11.1799 36.9632 10.7624 36.606 10.4621C36.2489 10.1617 35.7966 9.99795 35.33 10H4.64799ZM7.37699 15C7.13401 14.999 6.89916 15.0875 6.71715 15.2484C6.53515 15.4094 6.4187 15.6317 6.38999 15.873C6.15299 17.885 5.59299 22.984 5.49999 27C5.40399 31.116 6.43999 37.066 6.84099 39.2C6.92899 39.668 7.33699 40 7.81299 40H32.18C32.4094 40.0011 32.6319 39.9219 32.8091 39.7761C32.9862 39.6304 33.1068 39.4273 33.15 39.202C33.554 37.068 34.595 31.117 34.499 27C34.406 22.984 33.841 17.883 33.602 15.872C33.5731 15.6311 33.4567 15.4092 33.2749 15.2484C33.0931 15.0877 32.8586 14.9993 32.616 15H7.37699Z"
			  fill="#BFCDC2"/>
		<path
			d="M2.70202 11.625L3.68802 11.796L2.70202 11.625ZM1.00002 26.5L2.00002 26.522L1.00002 26.5ZM2.71202 43.364L1.72602 43.53L2.71202 43.364ZM37.29 43.381L36.305 43.209L37.29 43.381ZM39 27L40 26.978L39 27ZM37.28 11.64L38.267 11.475L37.28 11.64ZM6.39002 15.873L7.38302 15.99L6.39002 15.873ZM5.50002 27L4.50002 26.977L5.50002 27ZM6.84102 39.2L5.85802 39.385L6.84102 39.201V39.2ZM33.151 39.202L34.134 39.387L33.152 39.202H33.151ZM34.5 27L33.5 27.023L34.5 27ZM33.603 15.872L34.596 15.754L33.603 15.872ZM3.68802 11.796C3.72837 11.5714 3.84687 11.3682 4.02256 11.2226C4.19825 11.0769 4.4198 10.9981 4.64802 11V9C3.94876 8.99819 3.27133 9.24341 2.73526 9.69239C2.19919 10.1414 1.83892 10.7653 1.71802 11.454L3.68802 11.796ZM2.00002 26.522C2.11002 21.445 3.16002 14.829 3.68802 11.796L1.71802 11.454C1.18802 14.487 0.112017 21.236 1.70516e-05 26.478L2.00002 26.522ZM3.69802 43.199C3.11802 39.74 1.88802 31.7 2.00002 26.522L1.70516e-05 26.478C-0.115983 31.875 1.15002 40.095 1.72602 43.53L3.69802 43.2V43.199ZM4.66102 44C4.4316 44.0029 4.20866 43.924 4.03218 43.7774C3.8557 43.6307 3.73723 43.4261 3.69802 43.2L1.72602 43.53C1.84327 44.2225 2.20256 44.8509 2.73988 45.3033C3.2772 45.7556 3.95765 46.0025 4.66002 46V44H4.66102ZM35.345 44H4.66202V46H35.346V44H35.345ZM36.305 43.21C36.2643 43.434 36.1456 43.6363 35.9698 43.7809C35.794 43.9256 35.5726 44.0032 35.345 44V46C36.0435 46.0031 36.7207 45.7592 37.2568 45.3115C37.7929 44.8637 38.1536 44.2409 38.275 43.553L36.305 43.209V43.21ZM38 27.021C38.111 32.171 36.89 39.858 36.305 43.208L38.275 43.552C38.857 40.224 40.115 32.351 40 26.977L38 27.021ZM36.294 11.804C36.82 14.95 37.89 21.907 38 27.022L40 26.978C39.886 21.703 38.792 14.616 38.267 11.475L36.294 11.805V11.804ZM35.33 11C35.5601 10.9981 35.7833 11.078 35.9599 11.2254C36.1365 11.3729 36.2549 11.5783 36.294 11.805L38.267 11.475C38.15 10.7814 37.7905 10.1519 37.2526 9.69863C36.7147 9.24536 36.0334 8.99778 35.33 9V11ZM4.64802 11H35.33V9H4.64802V11ZM7.38302 15.99V15.991C7.38282 15.9924 7.38249 15.9937 7.38202 15.995C7.38129 15.9965 7.38027 15.9979 7.37902 15.999H7.37702C7.37502 16 7.37502 16 7.37702 16V14C6.8891 13.9991 6.41785 14.1774 6.05281 14.5012C5.68777 14.8249 5.45439 15.2715 5.39702 15.756L7.38302 15.99ZM6.50002 27.023C6.59202 23.059 7.14602 18.001 7.38302 15.99L5.39702 15.756C5.16002 17.769 4.59502 22.91 4.50002 26.976L6.50002 27.023ZM7.82402 39.016C7.42002 36.87 6.40702 31.02 6.50002 27.023L4.50002 26.977C4.40202 31.213 5.45902 37.262 5.85802 39.386L7.82402 39.016ZM7.81302 39C7.81102 39 7.81102 39 7.81302 39L7.81602 39.002C7.8201 39.0057 7.8229 39.0106 7.82402 39.016L5.85802 39.386C5.94418 39.841 6.18684 40.2514 6.54391 40.5462C6.90099 40.841 7.34998 41.0015 7.81302 41V39ZM32.181 39H7.81302V41H32.18V39H32.181ZM32.169 39.016C32.1702 39.0106 32.173 39.0057 32.177 39.002C32.1782 39.0011 32.1796 39.0004 32.181 39C32.182 39 32.182 39 32.181 39V41C33.126 41 33.955 40.336 34.134 39.387L32.169 39.016ZM33.5 27.023C33.593 31.02 32.574 36.871 32.17 39.016L34.134 39.387C34.536 37.264 35.598 31.214 35.5 26.977L33.5 27.023ZM32.61 15.99C32.849 18 33.408 23.059 33.5 27.023L35.5 26.977C35.405 22.908 34.835 17.767 34.596 15.754L32.61 15.99ZM32.617 16C32.618 16 32.617 16 32.617 16L32.615 15.998L32.612 15.995C32.6112 15.9937 32.6106 15.9924 32.61 15.991V15.99L34.596 15.754C34.5382 15.2698 34.3046 14.8237 33.9396 14.5004C33.5746 14.1771 33.1036 13.999 32.616 14V16H32.617ZM7.37702 16H32.617V14H7.37702V16Z"
			fill="#839788"/>
		<path
			d="M30.5 23.099C30.5 29.691 29.529 35.712 27.929 40.349C26.951 43.184 25.789 44.081 24.589 44.371C23.954 44.525 23.262 44.519 22.484 44.466C22.27 44.452 22.047 44.433 21.817 44.414C21.238 44.367 20.619 44.315 20 44.315C19.381 44.315 18.762 44.367 18.183 44.415C17.953 44.433 17.73 44.452 17.516 44.466C16.738 44.519 16.046 44.525 15.41 44.371C14.211 44.081 13.05 43.184 12.071 40.349C10.471 35.712 9.5 29.691 9.5 23.099C9.5 18.22 10.032 13.652 10.958 9.725C11.045 9.357 11.234 9.141 11.484 8.996C11.755 8.84 12.121 8.756 12.557 8.723C12.988 8.69 13.44 8.71 13.873 8.729H13.881L13.917 8.731C14.311 8.748 14.741 8.767 15.054 8.706C16.473 8.43 17.587 8.494 18.384 8.623C18.782 8.689 19.104 8.771 19.354 8.838L19.471 8.871L19.683 8.928C19.761 8.948 19.885 8.978 20 8.978C20.11 8.978 20.268 8.964 20.453 8.947L20.575 8.935C20.751 8.919 20.965 8.898 21.227 8.876C21.877 8.822 22.819 8.756 24.141 8.716C24.351 8.709 24.651 8.672 24.975 8.633L25.415 8.581C25.922 8.526 26.479 8.481 27.01 8.508C27.545 8.534 28.012 8.63 28.363 8.823C28.694 9.005 28.936 9.279 29.042 9.725C29.968 13.652 30.5 18.22 30.5 23.099Z"
			fill="white" stroke="#839788"/>
		<path
			d="M9.31699 40.85C9.35419 40.4799 9.52755 40.1369 9.80343 39.8874C10.0793 39.6379 10.438 39.4999 10.81 39.5H29.19C29.5619 39.4999 29.9207 39.6379 30.1966 39.8874C30.4724 40.1369 30.6458 40.4799 30.683 40.85L31.283 46.85C31.304 47.0586 31.281 47.2693 31.2155 47.4685C31.15 47.6677 31.0434 47.8509 30.9028 48.0064C30.7621 48.1619 30.5904 48.2862 30.3987 48.3712C30.207 48.4562 29.9997 48.5001 29.79 48.5H10.21C10.0003 48.5001 9.79295 48.4562 9.60128 48.3712C9.40961 48.2862 9.2379 48.1619 9.09722 48.0064C8.95653 47.8509 8.85001 47.6677 8.78452 47.4685C8.71903 47.2693 8.69602 47.0586 8.71699 46.85L9.31699 40.85Z"
			fill="#BFCDC2" stroke="#839788"/>
		<path
			d="M14.496 2C14.496 1.86739 14.5486 1.74021 14.6424 1.64645C14.7362 1.55268 14.8634 1.5 14.996 1.5H24.996C25.1286 1.5 25.2558 1.55268 25.3495 1.64645C25.4433 1.74021 25.496 1.86739 25.496 2V10.5H14.496V2V2Z"
			stroke="#839788" stroke-width="3" stroke-linejoin="round"/>
		<path
			d="M11.496 7C11.496 6.60218 11.654 6.22064 11.9353 5.93934C12.2166 5.65804 12.5981 5.5 12.996 5.5H26.996C27.3938 5.5 27.7753 5.65804 28.0566 5.93934C28.3379 6.22064 28.496 6.60218 28.496 7V11.5H11.496V7Z"
			fill="#BFCDC2" stroke="#839788"/>
		<path
			d="M8.49596 10C8.49596 9.60218 8.654 9.22064 8.9353 8.93934C9.2166 8.65804 9.59813 8.5 9.99596 8.5H29.996C30.3938 8.5 30.7753 8.65804 31.0566 8.93934C31.3379 9.22064 31.496 9.60218 31.496 10V14.5H8.49596V10ZM5.06596 48.588C5.15557 48.2743 5.34503 47.9983 5.60562 47.802C5.8662 47.6057 6.18369 47.4996 6.50996 47.5H33.49C33.8161 47.4999 34.1333 47.606 34.3937 47.8023C34.6541 47.9986 34.8434 48.2744 34.933 48.588L35.79 51.588C35.8537 51.8112 35.8648 52.0462 35.8223 52.2744C35.7799 52.5026 35.685 52.7179 35.5452 52.9032C35.4055 53.0885 35.2246 53.2389 35.0168 53.3425C34.8091 53.446 34.5801 53.5 34.348 53.5H5.64996C5.41782 53.5 5.18886 53.446 4.9811 53.3425C4.77334 53.2389 4.59246 53.0885 4.45268 52.9032C4.3129 52.7179 4.21804 52.5026 4.17558 52.2744C4.13311 52.0462 4.1442 51.8112 4.20796 51.588L5.06496 48.588H5.06596Z"
			fill="#BFCDC2" stroke="#839788"/>
		<path d="M9.24194 35.802L20.3259 26.142L31.5959 17.512" stroke="#839788" stroke-width="2"/>
		<path d="M30.69 35.747L19.643 26.117L8.40002 17.508" stroke="#839788" stroke-width="2"/>
	</g>
	<defs>
		<clipPath id="clip0">
			<rect width="40" height="54" fill="white"/>
		</clipPath>
	</defs>
</svg>

<svg width="20" height="27" viewBox="0 0 40 54" fill="none" xmlns="http://www.w3.org/2000/svg"><g clip-path="url(#clip0)"><path fill-rule="evenodd" clip-rule="evenodd" d="M4.648 10c-.959 0-1.781.68-1.946 1.625C2.175 14.658 1.112 21.34 1 26.5c-.114 5.288 1.134 13.417 1.712 16.864.16.952.985 1.636 1.95 1.636h30.684a1.96 1.96 0 001.944-1.619C37.874 40.042 39.114 32.261 39 27c-.112-5.195-1.194-12.217-1.72-15.36A1.969 1.969 0 0035.33 10H4.648zm2.729 5a.99.99 0 00-.987.873C6.153 17.885 5.593 22.984 5.5 27c-.096 4.116.94 10.066 1.341 12.2.088.468.496.8.972.8H32.18a.983.983 0 00.97-.798c.404-2.134 1.445-8.085 1.349-12.202-.093-4.016-.658-9.117-.897-11.128a.99.99 0 00-.986-.872H7.377z" fill="#BFCDC2"/><path d="M2.702 11.625l.986.171-.986-.171zM1 26.5l1 .022-1-.022zm1.712 16.864l-.986.166.986-.166zm34.578.017l-.985-.172.985.172zM39 27l1-.022L39 27zm-1.72-15.36l.987-.165-.987.165zM6.39 15.873l.993.117-.993-.117zM5.5 27l-1-.023 1 .023zm1.341 12.2l-.983.185.983-.184V39.2zm26.31.002l.983.185-.982-.185h-.001zM34.5 27l-1 .023 1-.023zm-.897-11.128l.993-.118-.993.118zM3.688 11.796a.967.967 0 01.96-.796V9a2.967 2.967 0 00-2.93 2.454l1.97.342zM2 26.522c.11-5.077 1.16-11.693 1.688-14.726l-1.97-.342C1.188 14.487.112 21.236 0 26.478l2 .044zm1.698 16.677C3.118 39.74 1.888 31.7 2 26.522l-2-.044c-.116 5.397 1.15 13.617 1.726 17.052l1.972-.33v-.001zm.963.801a.965.965 0 01-.963-.8l-1.972.33A2.965 2.965 0 004.66 46v-2h.001zm30.684 0H4.662v2h30.684v-2h-.001zm.96-.79a.962.962 0 01-.96.79v2a2.962 2.962 0 002.93-2.447l-1.97-.344v.001zM38 27.021c.111 5.15-1.11 12.837-1.695 16.187l1.97.344c.582-3.328 1.84-11.201 1.725-16.575l-2 .044zm-1.706-15.217C36.82 14.95 37.89 21.907 38 27.022l2-.044c-.114-5.275-1.208-12.362-1.733-15.503l-1.973.33v-.001zM35.33 11a.97.97 0 01.964.805l1.973-.33A2.969 2.969 0 0035.33 9v2zM4.648 11H35.33V9H4.648v2zm2.735 4.99v.001a.02.02 0 01-.001.004.013.013 0 01-.003.004h-.002c-.002.001-.002.001 0 .001v-2a1.99 1.99 0 00-1.98 1.756l1.986.234zM6.5 27.023c.092-3.964.646-9.022.883-11.033l-1.986-.234c-.237 2.013-.802 7.154-.897 11.22l2 .047zm1.324 11.993C7.42 36.87 6.407 31.02 6.5 27.023l-2-.046c-.098 4.236.959 10.285 1.358 12.409l1.966-.37zM7.813 39c-.002 0-.002 0 0 0l.003.002a.026.026 0 01.008.014l-1.966.37A1.983 1.983 0 007.813 41v-2zm24.368 0H7.813v2H32.18v-2h.001zm-.012.016a.027.027 0 01.008-.014.013.013 0 01.004-.002c.001 0 .001 0 0 0v2c.945 0 1.774-.664 1.953-1.613l-1.965-.371zM33.5 27.023c.093 3.997-.926 9.848-1.33 11.993l1.964.371c.402-2.123 1.464-8.173 1.366-12.41l-2 .046zm-.89-11.033c.239 2.01.798 7.069.89 11.033l2-.046c-.095-4.069-.665-9.21-.904-11.223l-1.986.236zm.007.01c.001 0 0 0 0 0l-.002-.002-.003-.003a.03.03 0 01-.002-.004v-.001l1.986-.236A1.99 1.99 0 0032.616 14v2h.001zm-25.24 0h25.24v-2H7.377v2z" fill="#839788"/><path d="M30.5 23.099c0 6.592-.971 12.613-2.571 17.25-.978 2.835-2.14 3.732-3.34 4.022-.635.154-1.327.148-2.105.095-.214-.014-.437-.033-.667-.052-.579-.047-1.198-.099-1.817-.099s-1.238.052-1.817.1c-.23.018-.453.037-.667.051-.778.053-1.47.059-2.106-.095-1.199-.29-2.36-1.187-3.339-4.022-1.6-4.637-2.571-10.658-2.571-17.25 0-4.879.532-9.447 1.458-13.374.087-.368.276-.584.526-.729.271-.156.637-.24 1.073-.273.431-.033.883-.013 1.316.006h.008l.036.002c.394.017.824.036 1.137-.025 1.419-.276 2.533-.212 3.33-.083.398.066.72.148.97.215l.117.033.212.057c.078.02.202.05.317.05.11 0 .268-.014.453-.031l.122-.012c.176-.016.39-.037.652-.059.65-.054 1.592-.12 2.914-.16.21-.007.51-.044.834-.083l.44-.052c.507-.055 1.064-.1 1.595-.073.535.026 1.002.122 1.353.315.331.182.573.456.679.902.926 3.927 1.458 8.495 1.458 13.374z" fill="#fff" stroke="#839788"/><path d="M9.317 40.85a1.5 1.5 0 011.493-1.35h18.38a1.5 1.5 0 011.493 1.35l.6 6a1.5 1.5 0 01-1.493 1.65H10.21a1.5 1.5 0 01-1.493-1.65l.6-6z" fill="#BFCDC2" stroke="#839788"/><path d="M14.496 2a.5.5 0 01.5-.5h10a.5.5 0 01.5.5v8.5h-11V2v0z" stroke="#839788" stroke-width="3" stroke-linejoin="round"/><path d="M11.496 7a1.5 1.5 0 011.5-1.5h14a1.5 1.5 0 011.5 1.5v4.5h-17V7z" fill="#BFCDC2" stroke="#839788"/><path d="M8.496 10a1.5 1.5 0 011.5-1.5h20a1.5 1.5 0 011.5 1.5v4.5h-23V10zm-3.43 38.588A1.5 1.5 0 016.51 47.5h26.98a1.5 1.5 0 011.443 1.088l.857 3a1.5 1.5 0 01-1.442 1.912H5.65a1.5 1.5 0 01-1.442-1.912l.857-3h.001z" fill="#BFCDC2" stroke="#839788"/><path d="M9.242 35.802l11.084-9.66 11.27-8.63" stroke="#839788" stroke-width="2"/><path d="M30.69 35.747l-11.047-9.63L8.4 17.508" stroke="#839788" stroke-width="2"/></g><defs><clipPath id="clip0"><path fill="#fff" d="M0 0h40v54H0z"/></clipPath></defs></svg>
